X:1
T:Tu parti apena
T:Tu parti apena giunto
T:Claudio Saracini
T:Source : Le secondo Musische per cantar e sonar---Venetia---A.Vincenti---1620. Editor  : André Vierendeels (27/11/15).
T:Notes  : Original clefs : C1, F4 Editorial accidentals above the staff Figures above the BC are notated in original print Text by Gianbattista Guarini
C:Claudio Saracini
%%score 1 2
L:1/8
Q:1/4=80
M:4/4
K:F
V:1 treble nm="Soprano" snm="S"
V:2 bass nm="BC" snm="BC"
V:1
 z2 C2 _E4- | E4 =E4 | z2 G2 B4- | B4 =B4 | z2 c2 c3 G | _E6 D2 | C8 | C8 | z2 DD D2 EF | G6 ^F2 | %10
w: Tu par-|* ti,|tu par-|* ti,|tu par- ti'a-|pe- na|giun-|to,|fug- gi- ti- vo cru-|del. fia|
 A6 d2 | f4 f4 | d2 AG FE D2 | ^F6 GA | ^C/D/E/F/ G/A/G/A/ E/F/G/A/ =B/^c/d/e/ | %15
w: mai quel|gior- no|che fi- ne'al- tuo par- tir|pon- ga'il ri-|tor- * * * * * * * * * * * * * * *|
 A/=B/^c/d/ E/F/G/A/ D/E/F/G/ F/E/F/D/ | E8 | D8 | c6 G2 | ^F6 FG | A8 | A8 | z cBA BdcB | _e6 d2 | %24
w: ||no?|O dol-|cis- si- mo|va-|go,|se tu non fus- si di va-|gar si|
 c8 | B8 | f6 d2 | ^c6 cd | e8 | e8 | z dAB ccBA | G6 F2 | G8 | F8 | A3 A c4- | c4 G3 F | A8 | A8 | %38
w: va-|go.-|O dol-|cis- si- mo|va-|go,|se tu non fus- si di va-|gar si|va-|go,|al- men fer-|* ma la|fe-|de,|
 B3 B d4- | d4 A3 G | =B8 | =B8 | c4 GEFG | A4 z EDC | D8 | C8 |] %46
w: al- men fer-|* ma la|fe-|de,|ne da me fug- ge'il|cor, se fug- ge'il|pie-|de.|
V:2
"^b" C,8- |"^-natural" C,4 C,4- | C,4 G,,4- |"^-natural" G,,4 G,,4 |"^b" C,8- | C,8 | %6
"^-natural" C,8- | C,8 | =B,,8- | B,,4 ^F,,4- | F,,4 D,4- | D,4 D,,4 | D,8 | D,,4 A,,4- | A,,8- | %15
 A,,8- | A,,8 | D,8 | C,8 | D,6 D,C, | F,8 | F,,8 | F,,4 G,,4 | _E,4 F,4 | F,,8 | B,,8 | %26
"^-natural" D,8 | A,,6 A,,D, |"^-natural" C,8 |"^-natural" C,8 | D,4 F,4 | C,8- | C,8 | F,,8 | %34
 F,4 F,,C, E,A,, | C,E, F,C, C,4 | F,,8- | F,,8 | G,,4 G,D, ^F,=B,, | D,^F,, G,,D,- D,4 | %40
"^-natural" G,,8 |"^-natural" G,,8 | C,8 | F,,4 G,,4- | G,,8 | C,8 |] %46

